X: 5
T: Cherish The Ladies
R: jig
M: 6/8
L: 1/8
K: Dmaj
|:dFF AFE|DFA AF/G/A|BEE GFE|FDF ABc|
dFF AFE|DFA AF/G/A|Bcd efg|1 fdc d2c:|2 fdc d2A||
|:df/g/d cf/g/c|df/g/d AFA|BEE GFE|FDF ABc|
df/g/d cf/g/c|df/g/d AFA|Bcd efg|fdc d2A:||
|:df/g/d fed|afd g/f/ed|B3 g3|ece gfe|
|1 df/g/d fed|afd gbg|fdB AGF|GEF GFE:|
|2 a3 bgb|afa g2e|fdB AGF|GEF GFE||
|:ADD AGF|ADD AdB|ADD AGF|GEF GFE|
ADD AGF|ADD AB=c|BF/G/B AF/G/A|GEF GFE:|
|:DFA dAF|DFA BGE|DFA dAF|GEF GFE|
DFA df/g/d|Bcc AB=c|BF/G/B AF/G/A|GEF GFE:|


Tune 590	Setting 13593

